svg/indent.svg

<svg xmlns="http://www.w3.org/2000/svg" viewBox="0 0 32 32"><path d="M3 7v2h26V7H3zm0 4v2h19v-2H3zm26 0l-5 5 5 5V11zM3 15v2h19v-2H3zm0 4v2h19v-2H3zm0 4v2h26v-2H3z"/></svg>

<svg xmlns="http://www.w3.org/2000/svg" viewBox="0 0 32 32" enable-background="new 0 0 32 32"><path d="M 3 7 L 3 9 L 29 9 L 29 7 L 3 7 z M 3 11 L 3 13 L 22 13 L 22 11 L 3 11 z M 29 11 L 24 16 L 29 21 L 29 11 z M 3 15 L 3 17 L 22 17 L 22 15 L 3 15 z M 3 19 L 3 21 L 22 21 L 22 19 L 3 19 z M 3 23 L 3 25 L 29 25 L 29 23 L 3 23 z"/></svg>
